X: 317
T: Da Liaoxian
%%abc-version 2.0
%%abcx-abcm2ps-target-version 5.9.1 (29 Sep 2008)
%%abc-creator hum2abc beta
%%abcx-conversion-date 2013/10/02 07:52:30
%%abc-edited-by Helmut Schaffrath
%%humdrum-veritas 1622602337
%%humdrum-veritas-data 4170792451
%%continueall 1
%%barnumbers 0
L: 1/8
M: 2/4
K: F
c2c2 [I:setbarnb 1]| 
d fc2 | 
c d c A | 
G FG2 | 
G Ac2 | 
d fc2 | 
A G F F | 
G FG2 | 
A FG2 | 
A FG2 | 
A G A G | 
A FG2 | 
c Ac2 | 
G A c F | 
DF2A | 
G2G D | 
C4 |]  



